!!!OTL: BEI EINEM WIRTHE WUNDERMILD
!!!ARE: Europa, Mitteleuropa, Deutschland
!!!SCT: B0522
!!!YEM: Copyright 1995, estate of Helmut Schaffrath.
**kern
*ICvox
*Ivox
*M4/4
*k[f#]
*G:
{8d
=1
4d
4d
4g
4g
=2
4.b
8a
4g
8r}
{8g
=3
4e
4e
4f#
4f#
=4
2g
4d
8r}
{8b
=5
4b
4b
4.dd
8b
=6
4b
8a
8b
4cc
8r}
{8a
=7
4a
4a
4b
4g
=8
2a
4g
8r}
==
!!!AGN: Wander - Lied
!!!ONB: ESAC (Essen Associative Code) Database: BOEHME
!!!AMT: simple quadruple
!!!AIN: vox
!!!EED: Helmut Schaffrath
!!!EEV: 1.0
*-
